build/system/ReportOutline.svg

<svg xmlns="http://www.w3.org/2000/svg" fill="none" viewBox="0 0 24 24" focusable="false"><path d="M0 0H24V24H0z"/><path fill="#74767B" fill-rule="evenodd" d="M13.296 3.09264C12.5854 2.99015 12 3.58205 12 4.30002L12 10.7C12 11.418 12.582 12 13.3 12L19.7 12C20.418 12 21.0099 11.4146 20.9074 10.704C20.3401 6.77071 17.2293 3.65989 13.296 3.09264ZM19.9465 14C20.3719 14 20.6881 14.396 20.5558 14.8004C19.3784 18.3999 15.9928 21 12 21C7.02944 21 3 16.9706 3 12C3 8.00716 5.60014 4.62162 9.19958 3.44422C9.60399 3.31194 10 3.62807 10 4.05356C10 4.35365 9.79722 4.61355 9.51318 4.71042C6.48089 5.7446 4.3 8.61761 4.3 12C4.3 16.2526 7.74741 19.7 12 19.7C15.3824 19.7 18.2554 17.5191 19.2896 14.4868C19.3865 14.2028 19.6464 14 19.9465 14ZM13.3 10.7L13.3 4.40909C16.5099 4.95432 19.0457 7.49011 19.5909 10.7L13.3 10.7Z"/></svg>

<svg xmlns="http://www.w3.org/2000/svg" fill="none" viewBox="0 0 24 24" focusable="false"><path fill="#74767B" fill-rule="evenodd" d="M12 4.3c0-.72.58-1.31 1.29-1.21 3.93.56 7.05 3.68 7.61 7.61.1.71-.49 1.3-1.2 1.3h-6.41c-.71 0-1.29-.59-1.29-1.3zm7.94 9.7c.43 0 .74.39.61.8C19.37 18.39 15.99 21 12 21c-4.98 0-9-4.03-9-9 0-4 2.6-7.38 6.19-8.56.41-.13.81.18.81.61 0 .3-.21.56-.49.66A7.7 7.7 0 0 0 4.29 12c0 4.25 3.45 7.7 7.71 7.7 3.38 0 6.25-2.19 7.28-5.22.1-.28.36-.48.66-.48m-6.65-9.6v6.3h6.3a7.74 7.74 0 0 0-6.3-6.3"/></svg>
